X:5940
T:Sergeant Early's Dream
T:Sgt. Early's Dream
O:england
R:reel
M:C|
K:Ddor
cB|ADDE FAcA|GECD ~E3F|DA,DE FEFG|Adde fedc|
ADDE FAcA|GECD ~E3F|DA,DE FAcA|GFEF D2:|
|:dc|Addc ~d3e|f2ed cAGF|ECEG ~c3d|ecdc AcGc|
Addc ~d3e|f2ed cAGc|AE~E2 cE~E2|CDEC D2:|
"variations"
|:dc|AD (3FED FAcA|GECD EFGE|DA,~A,2 DEFG|Ad~d2 fedc|
AD (3FED FAcA|GECD EGFE|DCDE FAcA|GFEF D2:|
|:dc|Addc ~d3e|f2ed cAGF|~E3G cBcd|ecdB cdBc|
Addc ~d3e|fded cAGc|AEGE cAGE|CE~E2 D2:|


